X:1
T:Old 120th, 66.66.66
T:Old 120th, 66.66.66
T:Thomas Est, Whole Book of Psalmes, 1592
T:Public Domain Courtesy of the Cyber Hymnal™
C:Thomas Est, Whole Book of Psalmes, 1592
Z:Public Domain
Z:Courtesy of the Cyber Hymnal™
%%score ( 1 2 ) ( 3 4 )
L:1/8
Q:1/4=115
M:4/4
K:Eb
V:1 treble 
V:2 treble 
V:3 bass 
V:4 bass 
V:1
 [B,E]4 [EG]2 (AF) | [GB]2 [Ac]2 [GB]4 | [EB]4 [Ec]2 [Fd]2 | [Ge]2 [Fc]2 [Fd]4 | %4
 [GB]4 [Ge]2 [Bd]2 | [Gc]2 [DB]2 [F=A]4 | [FB]4 [Gc]2 [GB]2 | [CB]2 [F=A]2 [FB]4 | %8
 [EG]4 [Ac]2 [FB]2 | [EA]2 [EG]2 [CF]4 | [DB]4 [EA]2 [EG]2 | [EF]2 [DF]2 E4 |] %12
V:2
 x8 | x8 | x8 | x8 | x8 | x8 | x8 | x8 | x8 | x8 | x8 | x4 E4 |] %12
V:3
 [E,G,]4 [E,B,]2 [C,C]2 | [B,,D]2 [A,,E]2 [E,E]4 | [E,G,]4 [E,G,]2 [D,B,]2 | %3
 [C,B,]2 [F,=A,]2 [B,,B,]4 | [C,B,]4 [C,C]2 [D,F]2 | [E,E]2 [G,B,]2 [F,C]4 | %6
 [D,B,]4 [E,E]2 [G,D]2 | [F,F]2 [F,C]2 [B,,D]4 | [E,B,]4 [A,,E]2 [B,,_D]2 | %9
 [C,C]2 [E,B,]2 [F,A,]4 | [B,,F,]4 [C,A,]2 [E,B,]2 | [A,,C]2 (B,A,) [E,G,]4 |] %12
V:4
 x8 | x8 | x8 | x8 | x8 | x8 | x8 | x8 | x8 | x8 | x8 | x2 B,,2 x4 |] %12

